src/assets/images/Decoration.svg

<svg xmlns="http://www.w3.org/2000/svg" width="539" height="501" fill="none" viewBox="0 0 539 501"><g stroke="#C81426" opacity=".1"><path d="M288.784 18.34c16.449 5.723 30.107 16.338 43.73 27.282l2.129 1.712c12.895 10.378 25.887 20.833 41.244 27.343 15.847 6.717 33.689 8.406 51.256 10.07 3.481.329 6.951.657 10.392 1.024 20.86 2.22 40.698 5.83 55.947 19.311 30.26 26.752 49.281 71.626 43.243 111.516-3.114 20.567-18.935 35.118-35.583 49.667l-2.146 1.872c-15.917 13.88-32.096 27.988-37.615 47.503-3.008 10.638-2.191 21.861.291 33.226 2.022 9.259 5.158 18.651 8.254 27.922.702 2.101 1.402 4.197 2.086 6.283 3.71 11.309 6.964 22.353 7.69 32.761.726 10.393-1.073 20.122-7.446 28.83-12.054 16.468-31.947 19.261-54.044 19.102-5.516-.039-11.157-.262-16.836-.498l-1.126-.047c-5.306-.221-10.64-.443-15.919-.526-11.303-.177-22.392.281-32.496 2.763-14.488 3.559-28.184 9.506-41.77 15.404-2.758 1.197-5.511 2.393-8.266 3.566-16.344 6.96-32.746 13.143-50.506 14.407-19.083 1.358-39.303 2.453-58.596.385-19.291-2.067-37.621-7.294-52.94-18.555-15.346-11.28-22.366-28.864-28.436-47.594-.863-2.664-1.707-5.351-2.554-8.046-5.089-16.202-10.263-32.674-20.207-45.93-6.18-8.237-14.386-15.058-23.288-21.281-5.622-3.931-11.549-7.64-17.424-11.318-3.413-2.136-6.81-4.262-10.119-6.414C19.653 328.325 4.06 315.716.994 295.751c-3.058-19.913 8.534-36.395 22.518-52.899a781.12 781.12 0 0 1 6.44-7.473c5.01-5.767 10.072-11.591 14.629-17.595 6.537-8.614 12.076-17.644 14.998-27.505 5.25-17.716 3.43-36.905 1.638-55.778-.236-2.484-.471-4.962-.69-7.431-1.884-21.285-2.532-41.873 8.126-59.512 21.195-35.076 63.363-54.863 103.499-63.852 38.664-8.659 79.081 1.567 116.632 14.634z"/><path d="M286.311 45.191c14.485 5.055 26.516 14.428 38.522 24.1l1.878 1.515c11.363 9.17 22.819 18.414 36.361 24.17 13.976 5.94 29.712 7.434 45.193 8.903 3.067.291 6.124.582 9.155.905 18.384 1.963 35.85 5.151 49.274 17.051 26.656 23.63 43.41 63.267 38.091 98.497-2.74 18.151-16.665 30.997-31.34 43.857l-1.896 1.658c-14.024 12.262-28.295 24.74-33.163 42.003-2.655 9.414-1.933 19.341.255 29.389 1.782 8.186 4.548 16.49 7.277 24.683.618 1.857 1.235 3.708 1.838 5.551 3.269 9.994 6.135 19.747 6.774 28.937.639 9.175-.944 17.758-6.551 25.44-10.604 14.528-28.108 16.997-47.582 16.857-4.86-.035-9.83-.232-14.835-.44l-.989-.042c-4.677-.195-9.38-.391-14.034-.465-9.964-.157-19.743.248-28.655 2.444-12.773 3.146-24.85 8.404-36.823 13.616-2.43 1.058-4.856 2.114-7.283 3.15-14.404 6.151-28.851 11.611-44.492 12.727-16.818 1.201-34.633 2.168-51.631.341-16.995-1.826-33.138-6.443-46.628-16.386-13.507-9.956-19.69-25.479-25.039-42.031a781.67 781.67 0 0 1-2.25-7.108c-4.485-14.317-9.048-28.885-17.819-40.608-5.451-7.286-12.69-13.318-20.537-18.819-4.956-3.474-10.181-6.754-15.36-10.005-3.008-1.887-6-3.765-8.915-5.666-15.932-10.388-29.652-21.519-32.35-39.135-2.69-17.569 7.508-32.116 19.833-46.702a696.003 696.003 0 0 1 5.674-6.601c4.416-5.097 8.879-10.247 12.896-15.554 5.763-7.615 10.649-15.601 13.227-24.325 4.63-15.667 3.024-32.636 1.446-49.313-.208-2.196-.415-4.386-.608-6.567-1.66-18.811-2.229-36.987 7.154-52.557 18.666-30.977 55.811-48.458 91.177-56.4 34.057-7.647 69.662 1.384 102.755 12.93z"/><path d="M283.76 74.743c12.352 4.323 22.612 12.34 32.863 20.623l1.605 1.299c9.698 7.849 19.485 15.77 31.055 20.703 11.942 5.091 25.389 6.371 38.605 7.629 2.617.249 5.225.497 7.811.774 15.693 1.68 30.581 4.409 42.022 14.581 22.739 20.218 37.029 54.133 32.493 84.27-2.334 15.512-14.199 26.494-26.73 37.508l-1.624 1.424c-11.966 10.494-24.164 21.191-28.326 35.993-2.271 8.076-1.653 16.589.216 25.198 1.523 7.013 3.885 14.127 6.215 21.142a875.154 875.154 0 0 1 1.568 4.751c2.791 8.557 5.235 16.901 5.78 24.759.544 7.844-.805 15.176-5.579 21.735-9.029 12.407-23.935 14.523-40.558 14.403-4.148-.03-8.389-.198-12.662-.377l-.842-.035c-3.993-.167-8.01-.335-11.985-.398-8.507-.134-16.863.212-24.48 2.094-10.911 2.696-21.227 7.2-31.448 11.663-2.074.906-4.145 1.81-6.215 2.697-12.295 5.266-24.618 9.936-37.957 10.891-14.357 1.028-29.559 1.856-44.062.292-14.5-1.563-28.267-5.513-39.768-14.016-11.511-8.509-16.783-21.779-21.35-35.951-.648-2.014-1.283-4.046-1.92-6.084-3.828-12.258-7.727-24.744-15.222-34.792-4.66-6.248-10.846-11.417-17.548-16.129-4.232-2.976-8.696-5.786-13.118-8.57-2.568-1.616-5.121-3.223-7.607-4.849-13.6-8.895-25.286-18.41-27.584-33.458-2.291-15.009 6.392-27.441 16.915-39.931a590.714 590.714 0 0 1 4.84-5.649c3.772-4.365 7.584-8.777 11.014-13.323 4.923-6.523 9.099-13.369 11.304-20.85 3.957-13.429 2.584-27.973 1.236-42.25-.177-1.88-.354-3.755-.518-5.622-1.418-16.107-1.9-31.647 6.096-44.957 15.92-26.498 47.605-41.458 77.788-48.256 29.051-6.543 59.428 1.183 87.677 11.069z"/><path d="M280.996 106.982c10.041 3.525 18.384 10.063 26.732 16.829l1.31 1.063c7.895 6.409 15.873 12.887 25.307 16.921 9.739 4.165 20.706 5.212 31.468 6.239 2.13.203 4.252.406 6.355.632 12.778 1.372 24.873 3.599 34.165 11.887 18.496 16.496 30.118 44.167 26.43 68.749-1.896 12.632-11.529 21.582-21.737 30.581l-1.329 1.17c-9.738 8.566-19.69 17.32-23.086 29.436-1.855 6.617-1.349 13.587.175 20.625 1.241 5.734 3.167 11.55 5.063 17.28.43 1.298.858 2.592 1.277 3.879 2.272 6.989 4.259 13.795 4.702 20.201.442 6.392-.655 12.358-4.526 17.694-7.323 10.093-19.415 11.824-32.95 11.726-3.375-.025-6.827-.162-10.307-.308l-.684-.029c-3.252-.136-6.524-.274-9.763-.325-6.93-.11-13.743.173-19.958 1.713-8.893 2.204-17.302 5.887-25.625 9.532-1.688.74-3.373 1.478-5.058 2.202-10.01 4.3-20.033 8.11-30.877 8.888-11.691.84-24.062 1.515-35.863.239-11.797-1.275-22.989-4.498-32.336-11.43-9.347-6.931-13.633-17.743-17.352-29.319-.528-1.643-1.044-3.302-1.563-4.966-3.116-10.011-6.296-20.227-12.41-28.448-3.803-5.114-8.849-9.344-14.31-13.195-3.447-2.431-7.086-4.729-10.689-7.004-2.09-1.32-4.168-2.632-6.189-3.958-11.075-7.265-20.557-15.017-22.421-27.266-1.859-12.214 5.183-22.339 13.753-32.542 1.287-1.533 2.61-3.068 3.939-4.612 3.071-3.565 6.179-7.173 8.974-10.889 4.012-5.332 7.42-10.934 9.219-17.059 3.227-10.987 2.108-22.885 1.01-34.544-.144-1.535-.288-3.066-.422-4.591-1.155-13.157-1.543-25.823 4.952-36.666 12.944-21.611 38.715-33.822 63.282-39.372 23.628-5.339 48.342.963 71.342 9.037z"/><path d="M278.232 139.221c7.73 2.726 14.156 7.785 20.601 13.034l1.015.828c6.091 4.969 12.261 10.003 19.559 13.139 7.536 3.239 16.023 4.053 24.33 4.849 1.643.158 3.279.315 4.899.49 9.863 1.064 19.166 2.79 26.309 9.192 14.253 12.773 23.207 34.202 20.366 53.23-1.456 9.752-8.857 16.669-16.742 23.654l-1.035.915c-7.509 6.637-15.215 13.449-17.846 22.88-1.439 5.157-1.044 10.584.133 16.052.96 4.454 2.449 8.972 3.913 13.417.331 1.007.662 2.009.984 3.006 1.754 5.422 3.284 10.689 3.625 15.644.34 4.941-.504 9.54-3.473 13.652-5.617 7.78-14.895 9.125-25.341 9.049-2.603-.019-5.266-.126-7.952-.239l-.532-.022c-2.509-.106-5.035-.212-7.536-.252-5.352-.086-10.624.134-15.436 1.332-6.875 1.712-13.377 4.574-19.801 7.402-1.303.573-2.603 1.145-3.902 1.706-7.726 3.335-15.447 6.283-23.798 6.886-9.024.651-18.564 1.174-27.662.185-9.094-.988-17.711-3.484-24.905-8.844-7.183-5.353-10.484-13.707-13.355-22.687a449.744 449.744 0 0 1-1.204-3.849c-2.406-7.764-4.867-15.709-9.598-22.103-2.946-3.981-6.852-7.269-11.072-10.26-2.663-1.887-5.477-3.673-8.26-5.439a321.702 321.702 0 0 1-4.772-3.066c-8.549-5.636-15.827-11.625-17.258-21.074-1.427-9.42 3.975-17.239 10.592-25.156a362.97 362.97 0 0 1 3.037-3.572c2.372-2.768 4.774-5.571 6.935-8.456 3.1-4.141 5.739-8.499 7.133-13.268 2.498-8.544 1.631-17.796.784-26.838-.111-1.191-.223-2.378-.326-3.56-.891-10.208-1.185-19.999 3.808-28.375 9.969-16.726 29.825-26.187 48.776-30.489 18.205-4.133 37.255.745 55.007 7.007z"/><path d="M274.857 178.036c4.946 1.759 9.064 5.026 13.218 8.438l.659.542c3.919 3.225 7.912 6.511 12.637 8.558 4.883 2.116 10.384 2.648 15.736 3.166 1.056.102 2.107.203 3.145.316 6.352.692 12.292 1.81 16.848 5.927 9.143 8.264 14.884 22.13 13.063 34.429-.927 6.264-5.641 10.718-10.728 15.263l-.679.606c-4.826 4.301-9.827 8.759-11.536 14.937-.938 3.388-.678 6.945.083 10.511.62 2.903 1.583 5.85 2.527 8.738.213.653.425 1.303.632 1.948 1.13 3.523 2.109 6.927 2.327 10.123.218 3.182-.322 6.127-2.205 8.757-3.562 4.976-9.452 5.854-16.178 5.805-1.673-.013-3.386-.082-5.116-.155l-.341-.015c-1.617-.068-3.247-.138-4.861-.164-3.453-.055-6.868.087-9.991.871-4.445 1.117-8.65 2.983-12.789 4.821-.838.372-1.674.743-2.508 1.106-4.975 2.166-9.925 4.07-15.272 4.459-5.813.423-11.944.762-17.787.121-5.839-.64-11.355-2.254-15.955-5.711-4.578-3.44-6.692-8.817-8.541-14.652-.262-.824-.517-1.657-.774-2.495-1.549-5.042-3.144-10.236-6.211-14.416-1.913-2.608-4.447-4.758-7.172-6.705-1.719-1.228-3.539-2.394-5.336-3.543a221.333 221.333 0 0 1-3.064-1.986c-5.507-3.662-10.132-7.515-11.041-13.572-.907-6.037 2.52-11.061 6.785-16.207.635-.767 1.291-1.538 1.95-2.314 1.53-1.8 3.084-3.629 4.479-5.508 2.003-2.698 3.717-5.549 4.623-8.676 1.619-5.584 1.057-11.631.511-17.5a421.79 421.79 0 0 1-.21-2.311c-.574-6.635-.755-12.943 2.43-18.333 6.386-10.805 19.12-16.935 31.308-19.725 11.673-2.673 23.903.479 35.334 4.546z"/></g></svg>

<svg width="539" height="501" viewBox="0 0 539 501" fill="none" xmlns="http://www.w3.org/2000/svg">
<g opacity="0.1">
<path d="M288.784 18.3396C305.233 24.0632 318.891 34.678 332.514 45.622C333.224 46.1922 333.933 46.7632 334.643 47.3345C347.538 57.7119 360.53 68.1672 375.887 74.6767C391.734 81.3942 409.576 83.0833 427.143 84.7463C430.624 85.0758 434.094 85.4042 437.535 85.7706C458.395 87.9914 478.233 91.6006 493.482 105.082C523.742 131.834 542.763 176.708 536.725 216.598C533.611 237.165 517.79 251.716 501.142 266.265C500.428 266.889 499.712 267.513 498.996 268.137C483.079 282.017 466.9 296.125 461.381 315.64C458.373 326.278 459.19 337.501 461.672 348.866C463.694 358.125 466.83 367.517 469.926 376.788C470.628 378.889 471.328 380.985 472.012 383.071C475.722 394.38 478.976 405.424 479.702 415.832C480.428 426.225 478.629 435.954 472.256 444.662C460.202 461.13 440.309 463.923 418.212 463.764C412.696 463.725 407.055 463.502 401.376 463.266L400.25 463.219C394.944 462.998 389.61 462.776 384.331 462.693C373.028 462.516 361.939 462.974 351.835 465.456C337.347 469.015 323.651 474.962 310.065 480.86C307.307 482.057 304.554 483.253 301.799 484.426C285.455 491.386 269.053 497.569 251.293 498.833C232.21 500.191 211.99 501.286 192.697 499.218C173.406 497.151 155.076 491.924 139.757 480.663C124.411 469.383 117.391 451.799 111.321 433.069C110.458 430.405 109.614 427.718 108.767 425.023C103.678 408.821 98.5043 392.349 88.5601 379.093C82.3808 370.856 74.1741 364.035 65.2723 357.812C59.6497 353.881 53.7235 350.172 47.848 346.494C44.4348 344.358 41.0387 342.232 37.7292 340.08C19.6525 328.325 4.05926 315.716 0.993635 295.751C-2.06403 275.838 9.52835 259.356 23.5125 242.852C25.6194 240.365 27.7811 237.877 29.9523 235.379C34.9629 229.612 40.0242 223.788 44.5809 217.784C51.1183 209.17 56.6567 200.14 59.5791 190.279C64.8294 172.563 63.0082 153.374 61.2169 134.501C60.9811 132.017 60.7459 129.539 60.5274 127.07C58.6434 105.785 57.9953 85.1967 68.6535 67.5575C89.8478 32.4816 132.016 12.6949 172.152 3.7063C210.816 -4.95261 251.233 5.27317 288.784 18.3396Z" stroke="#C81426"/>
<path d="M286.311 45.1914C300.796 50.2456 312.827 59.6194 324.833 69.2914C325.459 69.7957 326.085 70.3009 326.711 70.8063C338.074 79.9757 349.53 89.22 363.072 94.9759C377.048 100.916 392.784 102.41 408.265 103.879C411.332 104.17 414.389 104.461 417.42 104.784C435.804 106.747 453.27 109.935 466.694 121.835C493.35 145.465 510.104 185.102 504.785 220.332C502.045 238.483 488.12 251.329 473.445 264.189C472.814 264.741 472.182 265.294 471.549 265.847C457.525 278.109 443.254 290.587 438.386 307.85C435.731 317.264 436.453 327.191 438.641 337.239C440.423 345.425 443.189 353.729 445.918 361.922C446.536 363.779 447.153 365.63 447.756 367.473C451.025 377.467 453.891 387.22 454.53 396.41C455.169 405.585 453.586 414.168 447.979 421.85C437.375 436.378 419.871 438.847 400.397 438.707C395.537 438.672 390.567 438.475 385.562 438.267L384.573 438.225C379.896 438.03 375.193 437.834 370.539 437.76C360.575 437.603 350.796 438.008 341.884 440.204C329.111 443.35 317.034 448.608 305.061 453.82C302.631 454.878 300.205 455.934 297.778 456.97C283.374 463.121 268.927 468.581 253.286 469.697C236.468 470.898 218.653 471.865 201.655 470.038C184.66 468.212 168.517 463.595 155.027 453.652C141.52 443.696 135.337 428.173 129.988 411.621C129.227 409.268 128.483 406.894 127.738 404.513C123.253 390.196 118.69 375.628 109.919 363.905C104.468 356.619 97.2297 350.587 89.3822 345.086C84.426 341.612 79.2006 338.332 74.0214 335.081C71.0136 333.194 68.0214 331.316 65.1066 329.415C49.1752 319.027 35.4545 307.896 32.7569 290.28C30.0665 272.711 40.2648 258.164 52.59 243.578C54.4459 241.382 56.3504 239.184 58.2636 236.977C62.68 231.88 67.1427 226.73 71.1598 221.423C76.9232 213.808 81.8089 205.822 84.3872 197.098C89.0178 181.431 87.4114 164.462 85.8328 147.785C85.6249 145.589 85.4176 143.399 85.2251 141.218C83.5646 122.407 82.9962 104.231 92.3787 88.6608C111.045 57.6839 148.19 40.2035 183.556 32.2616C217.613 24.6136 253.218 33.6449 286.311 45.1914Z" stroke="#C81426"/>
<path d="M283.76 74.7435C296.112 79.0661 306.372 87.0839 316.623 95.3659C317.158 95.7983 317.693 96.2314 318.228 96.6648C327.926 104.514 337.713 112.435 349.283 117.368C361.225 122.459 374.672 123.739 387.888 124.997C390.505 125.246 393.113 125.494 395.699 125.771C411.392 127.451 426.28 130.18 437.721 140.352C460.46 160.57 474.75 194.485 470.214 224.622C467.88 240.134 456.015 251.116 443.484 262.13C442.944 262.604 442.402 263.079 441.86 263.554C429.894 274.048 417.696 284.745 413.534 299.547C411.263 307.623 411.881 316.136 413.75 324.745C415.273 331.758 417.635 338.872 419.965 345.887C420.493 347.476 421.019 349.061 421.533 350.638C424.324 359.195 426.768 367.539 427.313 375.397C427.857 383.241 426.508 390.573 421.734 397.132C412.705 409.539 397.799 411.655 381.176 411.535C377.028 411.505 372.787 411.337 368.514 411.158L367.672 411.123C363.679 410.956 359.662 410.788 355.687 410.725C347.18 410.591 338.824 410.937 331.207 412.819C320.296 415.515 309.98 420.019 299.759 424.482C297.685 425.388 295.614 426.292 293.544 427.179C281.249 432.445 268.926 437.115 255.587 438.07C241.23 439.098 226.028 439.926 211.525 438.362C197.025 436.799 183.258 432.849 171.757 424.346C160.246 415.837 154.974 402.567 150.407 388.395C149.759 386.381 149.124 384.349 148.487 382.311C144.659 370.053 140.76 357.567 133.265 347.519C128.605 341.271 122.419 336.102 115.717 331.39C111.485 328.414 107.021 325.604 102.599 322.82C100.031 321.204 97.4778 319.597 94.9919 317.971C81.3917 309.076 69.7057 299.561 67.4081 284.513C65.1167 269.504 73.8002 257.072 84.3228 244.582C85.9059 242.703 87.531 240.822 89.1638 238.933C92.9347 234.568 96.7468 230.156 100.177 225.61C105.1 219.087 109.276 212.241 111.481 204.76C115.438 191.331 114.065 176.787 112.717 162.51C112.54 160.63 112.363 158.755 112.199 156.888C110.781 140.781 110.299 125.241 118.295 111.931C134.215 85.4334 165.9 70.4733 196.083 63.6752C225.134 57.1318 255.511 64.8578 283.76 74.7435Z" stroke="#C81426"/>
<path d="M280.996 106.982C291.037 110.507 299.38 117.045 307.728 123.811C308.165 124.165 308.601 124.519 309.038 124.874C316.933 131.283 324.911 137.761 334.345 141.795C344.084 145.96 355.051 147.007 365.813 148.034C367.943 148.237 370.065 148.44 372.168 148.666C384.946 150.038 397.041 152.265 406.333 160.553C424.829 177.049 436.451 204.72 432.763 229.302C430.867 241.934 421.234 250.884 411.026 259.883C410.584 260.273 410.141 260.663 409.697 261.053C399.959 269.619 390.007 278.373 386.611 290.489C384.756 297.106 385.262 304.076 386.786 311.114C388.027 316.848 389.953 322.664 391.849 328.394C392.279 329.692 392.707 330.986 393.126 332.273C395.398 339.262 397.385 346.068 397.828 352.474C398.27 358.866 397.173 364.832 393.302 370.168C385.979 380.261 373.887 381.992 360.352 381.894C356.977 381.869 353.525 381.732 350.045 381.586L349.361 381.557C346.109 381.421 342.837 381.283 339.598 381.232C332.668 381.122 325.855 381.405 319.64 382.945C310.747 385.149 302.338 388.832 294.015 392.477C292.327 393.217 290.642 393.955 288.957 394.679C278.947 398.979 268.924 402.789 258.08 403.567C246.389 404.407 234.018 405.082 222.217 403.806C210.42 402.531 199.228 399.308 189.881 392.376C180.534 385.445 176.248 374.633 172.529 363.057C172.001 361.414 171.485 359.755 170.966 358.091C167.85 348.08 164.67 337.864 158.556 329.643C154.753 324.529 149.707 320.299 144.246 316.448C140.799 314.017 137.16 311.719 133.557 309.444C131.467 308.124 129.389 306.812 127.368 305.486C116.293 298.221 106.811 290.469 104.947 278.22C103.088 266.006 110.13 255.881 118.7 245.678C119.987 244.145 121.31 242.61 122.639 241.066C125.71 237.501 128.818 233.893 131.613 230.177C135.625 224.845 139.033 219.243 140.832 213.118C144.059 202.131 142.94 190.233 141.842 178.574C141.698 177.039 141.554 175.508 141.42 173.983C140.265 160.826 139.877 148.16 146.372 137.317C159.316 115.706 185.087 103.495 209.654 97.9446C233.282 92.6063 257.996 98.9082 280.996 106.982Z" stroke="#C81426"/>
<path d="M278.232 139.221C285.962 141.947 292.388 147.006 298.833 152.255C299.171 152.531 299.509 152.807 299.848 153.083C305.939 158.052 312.109 163.086 319.407 166.222C326.943 169.461 335.43 170.275 343.737 171.071C345.38 171.229 347.016 171.386 348.636 171.561C358.499 172.625 367.802 174.351 374.945 180.753C389.198 193.526 398.152 214.955 395.311 233.983C393.855 243.735 386.454 250.652 378.569 257.637C378.225 257.942 377.88 258.247 377.534 258.552C370.025 265.189 362.319 272.001 359.688 281.432C358.249 286.589 358.644 292.016 359.821 297.484C360.781 301.938 362.27 306.456 363.734 310.901C364.065 311.908 364.396 312.91 364.718 313.907C366.472 319.329 368.002 324.596 368.343 329.551C368.683 334.492 367.839 339.091 364.87 343.203C359.253 350.983 349.975 352.328 339.529 352.252C336.926 352.233 334.263 352.126 331.577 352.013L331.045 351.991C328.536 351.885 326.01 351.779 323.509 351.739C318.157 351.653 312.885 351.873 308.073 353.071C301.198 354.783 294.696 357.645 288.272 360.473C286.969 361.046 285.669 361.618 284.37 362.179C276.644 365.514 268.923 368.462 260.572 369.065C251.548 369.716 242.008 370.239 232.91 369.25C223.816 368.262 215.199 365.766 208.005 360.406C200.822 355.053 197.521 346.699 194.65 337.719C194.244 336.446 193.845 335.161 193.446 333.87C191.04 326.106 188.579 318.161 183.848 311.767C180.902 307.786 176.996 304.498 172.776 301.507C170.113 299.62 167.299 297.834 164.516 296.068C162.903 295.045 161.3 294.028 159.744 293.002C151.195 287.366 143.917 281.377 142.486 271.928C141.059 262.508 146.461 254.689 153.078 246.772C154.069 245.586 155.089 244.396 156.115 243.2C158.487 240.432 160.889 237.629 163.05 234.744C166.15 230.603 168.789 226.245 170.183 221.476C172.681 212.932 171.814 203.68 170.967 194.638C170.856 193.447 170.744 192.26 170.641 191.078C169.75 180.87 169.456 171.079 174.449 162.703C184.418 145.977 204.274 136.516 223.225 132.214C241.43 128.081 260.48 132.959 278.232 139.221Z" stroke="#C81426"/>
<path d="M274.857 178.036C279.803 179.795 283.921 183.062 288.075 186.474C288.294 186.655 288.514 186.835 288.734 187.016C292.653 190.241 296.646 193.527 301.371 195.574C306.254 197.69 311.755 198.222 317.107 198.74C318.163 198.842 319.214 198.943 320.252 199.056C326.604 199.748 332.544 200.866 337.1 204.983C346.243 213.247 351.984 227.113 350.163 239.412C349.236 245.676 344.522 250.13 339.435 254.675C339.209 254.877 338.983 255.079 338.756 255.281C333.93 259.582 328.929 264.04 327.22 270.218C326.282 273.606 326.542 277.163 327.303 280.729C327.923 283.632 328.886 286.579 329.83 289.467C330.043 290.12 330.255 290.77 330.462 291.415C331.592 294.938 332.571 298.342 332.789 301.538C333.007 304.72 332.467 307.665 330.584 310.295C327.022 315.271 321.132 316.149 314.406 316.1C312.733 316.087 311.02 316.018 309.29 315.945L308.949 315.93C307.332 315.862 305.702 315.792 304.088 315.766C300.635 315.711 297.22 315.853 294.097 316.637C289.652 317.754 285.447 319.62 281.308 321.458C280.47 321.83 279.634 322.201 278.8 322.564C273.825 324.73 268.875 326.634 263.528 327.023C257.715 327.446 251.584 327.785 245.741 327.144C239.902 326.504 234.386 324.89 229.786 321.433C225.208 317.993 223.094 312.616 221.245 306.781C220.983 305.957 220.728 305.124 220.471 304.286C218.922 299.244 217.327 294.05 214.26 289.87C212.347 287.262 209.813 285.112 207.088 283.165C205.369 281.937 203.549 280.771 201.752 279.622C200.715 278.958 199.685 278.298 198.688 277.636C193.181 273.974 188.556 270.121 187.647 264.064C186.74 258.027 190.167 253.003 194.432 247.857C195.067 247.09 195.723 246.319 196.382 245.543C197.912 243.743 199.466 241.914 200.861 240.035C202.864 237.337 204.578 234.486 205.484 231.359C207.103 225.775 206.541 219.728 205.995 213.859C205.923 213.085 205.852 212.314 205.785 211.548C205.211 204.913 205.03 198.605 208.215 193.215C214.601 182.41 227.335 176.28 239.523 173.49C251.196 170.817 263.426 173.969 274.857 178.036Z" stroke="#C81426"/>
</g>
</svg>
